svgs/remotenow.svg

<svg xmlns="http://www.w3.org/2000/svg" viewBox="0 0 192 192"><path d="M52.827 155.228c-1.614-1.614-1.334-2.672 1.674-6.321l2.746-3.333h12.271c8.351 0 12.612-.342 13.342-1.072 1.413-1.413 1.413-12.532 0-13.944-.793-.794-9.177-1.073-32.178-1.073-29.915 0-31.175-.068-32.894-1.788C16.049 125.959 16 124.718 16 82.558c0-42.16.049-43.401 1.788-45.14 1.758-1.758 2.97-1.787 73.519-1.774 39.453.007 72.175.309 72.716.67 2.73 1.823 3.038 4.924 3.038 30.542v25.981h3.065c5.948 0 5.874-.399 5.874 31.732 0 25.101-.186 29.108-1.405 30.327-1.165 1.165-3.954 1.405-16.337 1.405-19.961 0-18.906.827-18.906-14.817v-12.033l-19.888.24-19.889.241-.263 7.073c-.189 5.055.066 7.283.894 7.808.636.404 6.659.74 13.383.748l12.225.013 2.747 3.333c3.194 3.874 3.401 5.193 1.017 6.468-2.616 1.401-75.343 1.261-76.751-.147Zm106.632-2.496c.302-.487.219-1.475-.183-2.194-.981-1.752-3.384-.257-2.652 1.65.618 1.611 2.011 1.879 2.835.544Zm11.178-29.951V98.2h-25.028v49.162h25.028Zm-31.285-13.114c0-17.274-.31-16.83 11.772-16.83h8.814l-.237-25.251-.237-25.252H23.598l-.233 39.33c-.129 21.631-.041 39.832.195 40.447.337.878 12.789 1.117 58.11 1.117h57.682Zm-59.71-9.858c-1.692-1.692-1.495-33.218.217-34.639 1.039-.862 3.074-.082 10.503 4.03 10.791 5.973 18.805 10.985 19.633 12.278 1.372 2.141.053 3.089-21.224 15.266-8.151 4.665-7.685 4.508-9.129 3.065Z"/></svg>

<svg
    xmlns="http://www.w3.org/2000/svg"
    viewBox="0 0 192 192"
    id="vector">
    <path
        id="path"
        d="M 52.827 155.228 C 51.213 153.614 51.493 152.556 54.501 148.907 L 57.247 145.574 L 69.518 145.574 C 77.869 145.574 82.13 145.232 82.86 144.502 C 84.273 143.089 84.273 131.97 82.86 130.558 C 82.067 129.764 73.683 129.485 50.682 129.485 C 20.767 129.485 19.507 129.417 17.788 127.697 C 16.049 125.959 16 124.718 16 82.558 C 16 40.398 16.049 39.157 17.788 37.418 C 19.546 35.66 20.758 35.631 91.307 35.644 C 130.76 35.651 163.482 35.953 164.023 36.314 C 166.753 38.137 167.061 41.238 167.061 66.856 L 167.061 92.837 L 170.126 92.837 C 176.074 92.837 176 92.438 176 124.569 C 176 149.67 175.814 153.677 174.595 154.896 C 173.43 156.061 170.641 156.301 158.258 156.301 C 138.297 156.301 139.352 157.128 139.352 141.484 L 139.352 129.451 L 119.464 129.691 L 99.575 129.932 L 99.312 137.005 C 99.123 142.06 99.378 144.288 100.206 144.813 C 100.842 145.217 106.865 145.553 113.589 145.561 L 125.814 145.574 L 128.561 148.907 C 131.755 152.781 131.962 154.1 129.578 155.375 C 126.962 156.776 54.235 156.636 52.827 155.228 Z M 159.459 152.732 C 159.761 152.245 159.678 151.257 159.276 150.538 C 158.295 148.786 155.892 150.281 156.624 152.188 C 157.242 153.799 158.635 154.067 159.459 152.732 Z M 170.637 122.781 L 170.637 98.2 L 145.609 98.2 L 145.609 147.362 L 170.637 147.362 Z M 139.352 109.667 C 139.352 92.393 139.042 92.837 151.124 92.837 L 159.938 92.837 L 159.701 67.586 L 159.464 42.334 L 23.598 42.334 L 23.365 81.664 C 23.236 103.295 23.324 121.496 23.56 122.111 C 23.897 122.989 36.349 123.228 81.67 123.228 L 139.352 123.228 Z M 79.642 99.809 C 77.95 98.117 78.147 66.591 79.859 65.17 C 80.898 64.308 82.933 65.088 90.362 69.2 C 101.153 75.173 109.167 80.185 109.995 81.478 C 111.367 83.619 110.048 84.567 88.771 96.744 C 80.62 101.409 81.086 101.252 79.642 99.809 Z"
        fill="#000000"
        stroke-width="12"/>
</svg>
